kora/actions/scalable/icon_radio.svg

<svg xmlns="http://www.w3.org/2000/svg" style="fill-rule:evenodd;clip-rule:evenodd;stroke-linejoin:round;stroke-miterlimit:2" width="100%" height="100%" version="1.1" viewBox="0 0 16 16" xml:space="preserve">
 <defs>
  <style id="current-color-scheme" type="text/css">
   .ColorScheme-Text { color:#dfdfdf; } .ColorScheme-Highlight { color:#4285f4; } .ColorScheme-NeutralText { color:#ff9800; } .ColorScheme-PositiveText { color:#4caf50; } .ColorScheme-NegativeText { color:#f44336; }
  </style>
 </defs>
 <path style="fill:currentColor;fill-opacity:0.3" class="ColorScheme-Text" d="M2,3c-0.554,0 -1,0.446 -1,1l0,8c0,0.554 0.446,1 1,1l12,0c0.554,0 1,-0.446 1,-1l0,-8c0,-0.554 -0.446,-1 -1,-1l-12,0Zm4,2c1.657,0 3,1.343 3,3c0,1.657 -1.343,3 -3,3c-1.657,0 -3,-1.343 -3,-3c0,-1.657 1.343,-3 3,-3Z"/>
 <path style="fill:currentColor;" class="ColorScheme-Text" d="M10,10l4,0l0,1l-4,0l0,-1Zm-4,-4.458c-1.348,0 -2.458,1.11 -2.458,2.458c0,1.348 1.11,2.458 2.458,2.458c1.348,-0 2.458,-1.11 2.458,-2.458c-0,-1.348 -1.11,-2.458 -2.458,-2.458Zm4,2.458l4,0l0,1l-4,0l0,-1Zm0,-2l4,0l0,1l-4,0l0,-1Z"/>
</svg>

<svg xmlns="http://www.w3.org/2000/svg" width="16" height="16" version="1.1">
 <defs>
  <style id="current-color-scheme" type="text/css">
   .ColorScheme-Text { color:#dfdfdf; } .ColorScheme-Highlight { color:#4285f4; }
  </style>
 </defs>
 <path style="fill:currentColor" class="ColorScheme-Text" d="M 2,3 C 1.446,3 1,3.446 1,4 l 0,8 c 0,0.554 0.446,1 1,1 l 12,0 c 0.554,0 1,-0.446 1,-1 L 15,4 C 15,3.446 14.554,3 14,3 L 2,3 Z M 6,5 C 7.6568,5 9,6.3432 9,8 9,9.6568 7.6568,11 6,11 4.3432,11 3,9.6568 3,8 3,6.3432 4.3432,5 6,5 Z M 6,6 A 2,2 0 0 0 4,8 2,2 0 0 0 6,10 2,2 0 0 0 8,8 2,2 0 0 0 6,6 Z m 4,0 4,0 0,1 -4,0 0,-1 z m 0,2 4,0 0,1 -4,0 0,-1 z m 0,2 4,0 0,1 -4,0 0,-1 z"/>
</svg>
